X:1
T:Duo Merveille
T:Duo Merveille
T: Niccolò Paganini
T:Per un violino solo
T:by IMSLP - Pubblico dominio
T:by IMSLP - Pubblico dominio
C:Niccolò Paganini
Z:by IMSLP - Pubblico dominio
%%score [ 1 2 ]
L:1/8
Q:1/4=50
M:3/4
K:C
V:1 treble nm="\n\n\n\nAdagio"
V:2 treble nm="Violin"
V:1
"^Arco" cz/e/4d/4 c3/2z/4d/4 e3/2z/4^f/4 |{^fga} Tg4 !fermata!z2 | (f3 g/f/ e/d/c/B/) | %3
 (f3 g/f/ e/d/c/B/) | (d>^d) (e>e) (g/^f/=f/e/) | d3 (b/a/ g/^f/e/d/) | d3 (c'/a/ g/^f/e/d/) | %7
 d/g^f/ e/ag/ f/d'a/ | %8
 .b/4.d'/4.c'/4.b/4 .a/4.c'/4.b/4.a/4 .g/4.b/4.a/4.g/4 .^f/4.a/4.g/4.f/4 .e/4.g/4.f/4.e/4 .^d/4.f/4.e/4.d/4 | %9
 (e/4^f/8g/8a/8b/8c'/8d'/8 ^d'/8e'/8f'/8e'/8d'/8c'/8b/8a/8 g2 ^f2) | %10
 (Tg4 (g/4)b/4a/4g/4^f/4g/4a/4g/4) | T^f2 (=f2 (f/4)a/4g/4f/4e/4f/4g/4)f/4 | %12
 e/g/a/g/- g/^f=f/- f/e(^f/ | g/)(d/g/)=f/ e/(c'/g/)e/ (g/^f/=f/e/) | d>e de g/^f/=f/e/ | %15
 (d2{ed} ^c/)d/e/f/e/d/{!fermata!c!fermata!d!fermata!e} !fermata!d |] %16
[M:4/4][Q:1/4=120]"^All° molto" GAB | (c4 d)(d/c/) .B.c | (d4 d)(f/e/ dc) | (B4 B)(a/g/ fd) | %20
 (c4 .c).e.f.g | (a3 b/a/ g3 a/g/) | (f3 g/f/ e3 f/e/) | ^cdfe c d2 =c | (c4 B) .G.A.B | %25
 ((c4 c)d/c/ Bc) | ((d4 d)f/e/ dc) | ((B4 B)a/g/) .f.d | (c4 c)efg | (a3 b/a/ g3 a/g/) | %30
 (^f2!>(! =f4!>)! e2) | ^cdfa =c2 d2 | ((_e4 e)f/e/ dc) | B z c z d z _e z | (=e3 f/e/ d3 e/d/) | %35
 (c4 _d)_b/_a/ g/f/e/c/ | (c4 _d)_b/_a/ g/f/e/c/ | (c4 c)(_edc) | B z c z a z b z | %39
 c'3 (g/e/ d)(c'/a/ g/f/e/d/) | c3 (g/e/ d)(b/a/ g/f/e/d/) | (ca/g/ f/e/d/c/ B)(b/a/ g/f/e/d/ | %42
 c)(a/g/ f/e/d/c/ B)(b/a/ g/f/e/d/ | c) z B z c z B z | c z B z c z B z | c2 z2!f! [ce]3 z/ [ce]/ | %46
 [ce]4 |] %47
V:2
"^Pizz." [G,E] z [G,E] z [CG]3/2z/4[A,D]/4 | [G,D]2 z2 !fermata!z2 | G,/B,/D/B,/ G,/B,/D [G,D] z | %3
 G,/B,/D/B,/ G,/B,/D G, z | B,/G,/B,/G,/ C/G,/C/^C/ E/^D/=D/C/ | B,/D/G/D/ B, z z2 | %6
 C/^F/A/F/ C z z2 | B,B,^CCD^F | G^FEDCB, | C z E/G/B/G/ D/^F/G/d/ | %10
 G, z (4:2:4G,/B,/D/B,/ (4:2:4G,/B,/D/B,/ G, z | G, z (4:2:4G,/B,/D/B,/ (4:2:4G,/B,/D/B,/ G, z | %12
 CE^CE B,=C/A,/ | G, z/ B,C/ z/ C/ E/^D/=D/C/ | %14
 B,/4G,/4B,/4G,/4 B,/4G,/4C/4G,/4 B,/4G,/4B,/4G,/4 C/4G,/4C/4G,/4 E/4G,/4^D/4G,/4 =D/4G,/4C/4G,/4 | %15
 !fermata!B,2 x2 x !fermata!z |][M:4/4] z z2 | z !/![G,E]3 [G,E] z z2 | z !/![G,E]3 [G,E] z z2 | %19
 z !/![G,F]3 [G,F] z z2 | z !/![G,E]3 [G,E] z z2 | z FF z z EE z | z DD z z CC z | F2 z2 F2 ^F2 | %24
 z G^FG G, z z2 | z !/![G,E]3 [G,E] z z2 | z !/![G,F]3 [G,F] z z2 | z !/![G,F]3 [G,F] z z2 | %28
 z !/![G,E]3 [G,E] z z2 | z FF z z EE z | ^D2 =D2 B,2 C2 | F2 z2 G2 G,2 | z !/![G,F]3 [G,F] z z2 | %33
 z [G,=F] z [A,E] z [FA] z [^FA] | z [Gc][Gc] z z [G,F][G,F] z | z !/![_A,_E]3 [G,E] z z2 | %36
 z !/![_A,_E]3 [G,E] z z2 | z !/![_A,_E]3 [A,^F] z z2 | z [G,=F] z [A,E] z F z [G,F] | %39
 z [G,E][G,E] z [G,F]2 z2 | z [G,E][G,E] z [G,F]2 z2 | [G,E]2 z2 [G,F]2 z2 | [G,E]2 z2 [G,F]2 z2 | %43
 z [G,E] z [G,F] z [G,E] z [G,F] | z [G,E] z g z [G,E] z g | [G,E]2 z2!f! [CG]3 z/ [CG]/ | [CG]4 |] %47

